src/Pure-Dark/16/symbolic/status/checkbox-symbolic.svg

<?xml version="1.0" encoding="UTF-8" standalone="no"?>
<svg
   width="16"
   height="16"
   version="1.1"
   id="svg1"
   sodipodi:docname="checkbox-symbolic.svg"
   inkscape:version="1.4.2 (ebf0e940d0, 2025-05-08)"
   xmlns:inkscape="http://www.inkscape.org/namespaces/inkscape"
   xmlns:sodipodi="http://sodipodi.sourceforge.net/DTD/sodipodi-0.dtd"
   xmlns="http://www.w3.org/2000/svg"
   xmlns:svg="http://www.w3.org/2000/svg">
  <defs
     id="defs1">
     <style
        id="current-color-scheme"
        type="text/css">
        .ColorScheme-Text { color:#f2f2f2; }
        .ColorScheme-NeutralText { color:#f67400; }
        .ColorScheme-PositiveText { color:#37c837; }
        .ColorScheme-NegativeText { color:#f44336; }
        .ColorScheme-Highlight { color:#3daee9; }
     </style>
  </defs>
  <sodipodi:namedview
     id="namedview1"
     pagecolor="#ffffff"
     bordercolor="#000000"
     borderopacity="0.25"
     inkscape:showpageshadow="2"
     inkscape:pageopacity="0.0"
     inkscape:pagecheckerboard="0"
     inkscape:deskcolor="#d1d1d1"
     inkscape:zoom="49.6875"
     inkscape:cx="8"
     inkscape:cy="8"
     inkscape:window-width="1920"
     inkscape:window-height="1010"
     inkscape:window-x="0"
     inkscape:window-y="0"
     inkscape:window-maximized="1"
     inkscape:current-layer="svg1" />
  <path
     id="path1"
     style="fill:currentColor"
     class="ColorScheme-Text"
     d="M 3.4355469 1 C 2.0625469 1 0.9375 2.1105156 0.9375 3.4785156 L 0.9375 12.521484 C 0.9375 13.889484 2.0625469 15 3.4355469 15 L 12.564453 15 C 13.937453 15 15.0625 13.889484 15.0625 12.521484 L 15.0625 3.4785156 C 15.0625 2.1105156 13.937453 1 12.564453 1 L 3.4355469 1 z M 3.4355469 1.9960938 L 12.564453 1.9960938 C 13.408453 1.9960938 14.066406 2.6495156 14.066406 3.4785156 L 14.066406 12.521484 C 14.066406 13.350484 13.408453 14.003906 12.564453 14.003906 L 3.4355469 14.003906 A 1.477 1.477 0 0 1 1.9335938 12.521484 L 1.9335938 3.4785156 C 1.9335938 2.6495156 2.5915469 1.9960938 3.4355469 1.9960938 z " />
</svg>

<svg width="16" height="16" xmlns="http://www.w3.org/2000/svg"><path color="#000" d="M3.436 1C2.063 1 .937 2.111.937 3.479v9.042C.937 13.889 2.063 15 3.436 15h9.128c1.373 0 2.499-1.111 2.499-2.479V3.479C15.063 2.111 13.937 1 12.564 1zm0 .996h9.128c.844 0 1.502.654 1.502 1.483v9.042c0 .829-.658 1.483-1.502 1.483H3.436a1.477 1.477 0 01-1.502-1.483V3.479c0-.829.658-1.483 1.502-1.483z" fill="#f2f2f2" font-family="sans-serif" font-weight="400" overflow="visible" style="line-height:normal;font-variant-ligatures:normal;font-variant-position:normal;font-variant-caps:normal;font-variant-numeric:normal;font-variant-alternates:normal;font-feature-settings:normal;text-indent:0;text-align:start;text-decoration-line:none;text-decoration-style:solid;text-decoration-color:#000;text-transform:none;text-orientation:mixed;shape-padding:0;isolation:auto;mix-blend-mode:normal;marker:none"/></svg>
